X:850
T:Jessie's Hornpipe
T:The Ton
S:Various recordings, sessions
Z:Nigel Gatherer
M:4/4
L:1/8
K:G
Bc | d2 g2 g2 dc | B2 d2 d2 BA | G2 G2 A2 A2 | BABc B2
Bc | d2 g2 g2 dc | B2 d2 d2 BA | G2 G2 A2 A2 | G4-  G2 :|
Bc | d2 g2 e2 c2 | d2 g2 e2 c2 | d3  B G2 B2 | AGAB A2
Bc | d2 g2 e2 c2 | d2 g2 e2 c2 | BdBG  AcAF  | G4-  G2 :|
<end>
<start>
